documentation/images/signup.svg

<svg fill="none" height="48" viewBox="0 0 48 48" width="48" xmlns="http://www.w3.org/2000/svg"><circle cx="24" cy="24" fill="#1da1f2" r="24"/><path clip-rule="evenodd" d="m31.3294 20.839c-.1965 0-.3862-.085-.5233-.236l-2.5491-2.824c-.2712-.302-.2588-.776.0306-1.06.2904-.286.7437-.27 1.0159.03l1.8419 2.04 3.0254-6.373c.1764-.37.6038-.52.9632-.34.3565.185.5012.635.3258 1.006l-3.4864 7.337c-.1035.22-.3048.374-.5386.41-.0345.006-.07.01-.1054.01zm-10.3261 2.516c1.2986 0 2.7524-.15 3.68-1.256.7792-.93 1.0322-2.367.7725-4.392-.3642-2.826-2.0279-4.513-4.4515-4.513-2.4246 0-4.0892 1.687-4.4524 4.513-.2616 2.025-.0096 3.462.7714 4.393.9277 1.108 2.3815 1.257 3.68 1.257zm0-8.66c-2.275 0-2.875 2.012-3.0283 3.212-.1993 1.549-.0546 2.627.4313 3.205.435.52 1.2132.743 2.597.743 1.3839 0 2.1611-.223 2.5971-.743.4849-.578.6296-1.655.4313-3.205-.1553-1.199-.7542-3.212-3.0284-3.212zm7.935 16.079c-.8433-3.525-4.1045-5.988-7.935-5.988-3.8314 0-7.0945 2.463-7.935 5.988-.1648.693-.0287 1.4.3786 1.94.391.522.9966.822 1.6608.822h11.7923c.6612 0 1.2678-.3 1.6579-.82.4073-.54.5443-1.247.3795-1.942zm-2.0383 1.263c.2242 0 .4063-.085.527-.245.1313-.175.1725-.415.115-.655-.6813-2.856-3.3704-4.85-6.5396-4.85s-5.8593 1.995-6.5397 4.85c-.0575.242-.0163.48.115.654.1208.161.3038.246.529.246z" fill="#fff" fill-rule="evenodd"/></svg>

<svg width="48" height="48" viewBox="0 0 48 48" fill="none" xmlns="http://www.w3.org/2000/svg">
<circle cx="24" cy="24" r="24" fill="#1DA1F2"/>
<path fill-rule="evenodd" clip-rule="evenodd" d="M31.3294 20.839C31.1329 20.839 30.9432 20.754 30.8061 20.603L28.257 17.779C27.9858 17.477 27.9982 17.003 28.2876 16.719C28.578 16.433 29.0313 16.449 29.3035 16.749L31.1454 18.789L34.1708 12.416C34.3472 12.046 34.7746 11.896 35.134 12.076C35.4905 12.261 35.6352 12.711 35.4598 13.082L31.9734 20.419C31.8699 20.639 31.6686 20.793 31.4348 20.829C31.4003 20.835 31.3648 20.839 31.3294 20.839ZM21.0033 23.355C22.3019 23.355 23.7557 23.205 24.6833 22.099C25.4625 21.169 25.7155 19.732 25.4558 17.707C25.0916 14.881 23.4279 13.194 21.0043 13.194C18.5797 13.194 16.9151 14.881 16.5519 17.707C16.2903 19.732 16.5423 21.169 17.3233 22.1C18.251 23.208 19.7048 23.357 21.0033 23.357V23.355ZM21.0033 14.695C18.7283 14.695 18.1283 16.707 17.975 17.907C17.7757 19.456 17.9204 20.534 18.4063 21.112C18.8413 21.632 19.6195 21.855 21.0033 21.855C22.3872 21.855 23.1644 21.632 23.6004 21.112C24.0853 20.534 24.23 19.457 24.0317 17.907C23.8764 16.708 23.2775 14.695 21.0033 14.695ZM28.9383 30.774C28.095 27.249 24.8338 24.786 21.0033 24.786C17.1719 24.786 13.9088 27.249 13.0683 30.774C12.9035 31.467 13.0396 32.174 13.4469 32.714C13.8379 33.236 14.4435 33.536 15.1077 33.536H26.9C27.5612 33.536 28.1678 33.236 28.5579 32.716C28.9652 32.176 29.1022 31.469 28.9374 30.774H28.9383ZM26.9 32.037C27.1242 32.037 27.3063 31.952 27.427 31.792C27.5583 31.617 27.5995 31.377 27.542 31.137C26.8607 28.281 24.1716 26.287 21.0024 26.287C17.8332 26.287 15.1431 28.282 14.4627 31.137C14.4052 31.379 14.4464 31.617 14.5777 31.791C14.6985 31.952 14.8815 32.037 15.1067 32.037H26.9Z" fill="white"/>
</svg>
